!!!OTL: ES HATT EIN BAUER EIN SCHOENES WEIB
!!!ARE: Europa, Mitteleuropa, Deutschland
!!!SCT: E0150A
!!!YEM: Copyright 1995, estate of Helmut Schaffrath.
**kern
*ICvox
*Ivox
*M6/8
*k[f#]
*G:
{8d
=1
4g
8b
8.dd
16b
8g
=2
4f#
8a
8.cc
16a}
{8f#
=3
4g
8b
8.dd
16b
8g
=4
4.a
4r}
{8d
=5
4g
8b
8.dd
16b
8g
=6
4f#
8a
8.cc
16a}
{8f#
=7
4g
8b
8.dd
16b
8g
=8
4.a
4r}
{8b
=9
8.a
16a
8a
8a
8g
8a
=10
4.b
4r}
{8b
=11
8.a
16a
8a
8a
8g
8a
=12
4.b
4r}
{8b
=13
8.a
16a
8a
8a
8g
8a
=14
8g
8b
8dd}
{8g
8b
8dd
=15
4ee
8cc
4cc
8ee
=16
4dd
8b
4b}
{8g
=17
8.a
16g
8cc
8d
8e
8f#
=18
4.g
4r}
{8b
=19
8.a
16a
8a
8a
8g
8a
=20
8g
8b
8dd}
{8g
8b
8dd
=21
4ee
8cc
4cc
8ee
=22
4dd
8b
4b}
{8g
=23
8.a
16g
8cc
8d
8e
8f#
=24
4.g
4r}
==
!!!AGN: erzaehlendes Volks - Lied, Scherz, Schwank, betrogener Ehemann, Ballade ?
!!!ONB: ESAC (Essen Associative Code) Database: ERK1
!!!AMT: compound duple
!!!AIN: vox
!!!EED: Helmut Schaffrath
!!!EEV: 1.0
*-
